images/pinterest.svg

<svg xmlns="http://www.w3.org/2000/svg" fill="none" viewBox="0 0 48 48">
  <circle cx="24" cy="24" r="23.5" stroke="#000"/>
  <path fill="#000" d="M32.7357 18.4777c-.3289-1.1262-.8574-2.0744-1.616-2.8984-.7416-.806-1.5949-1.4172-2.6092-1.8686-1.1551-.5129-2.4942-.7621-3.7737-.7019-.4668.0217-.9225.0465-1.3695.1121-1.2592.1825-2.3678.5628-3.3893 1.1629-1.3035.7663-2.3213 1.809-3.0248 3.0992-.3654.6714-.7252 1.8553-.8782 2.6282-.181.9116-.0216 2.4927.3416 3.3844.4537 1.1114.827 1.6039 1.7373 2.2914.0055.0041.5683.4148.9433.4086.6829-.0133.8187-.6751.8838-.9932.0122-.06.0241-.1195.0384-.1753.0127-.0492.0292-.1019.0457-.1568.0964-.316.2279-.7485.0097-1.132-.082-.1437-.1788-.2556-.2642-.3539-.0465-.0536-.093-.1052-.1307-.1622-.3239-.4874-.4879-1.0973-.4879-1.8127 0-.9386.2097-1.7887.641-2.5987.7826-1.4692 2.0815-2.3967 3.7567-2.6825.9535-.1617 2.0642-.094 2.898.1765.7615.2475 1.4097.6852 1.8748 1.2664.4922.6151.7738 1.3953.8359 2.3194.0406.5898-.0122 1.1836-.0558 1.5782-.1683 1.5186-.6046 2.741-1.2963 3.634-.5666.7327-1.1776 1.1001-1.8685 1.1237-.4448.0175-.7771-.0746-1.0777-.2927-.2838-.205-.4525-.4576-.532-.7942-.09-.3843.0186-.7828.1341-1.2047l.0186-.0674c.101-.3713.2063-.7104.3099-1.0442.1628-.526.3315-1.0699.4706-1.7006.1573-.7122.178-1.2872.0643-1.7575-.1404-.5835-.4499-1.0206-.9201-1.2995-.4976-.2942-1.2025-.3507-1.794-.1442-.882.3051-1.5547 1.1166-1.8461 2.2266-.1475.5638-.1906 1.1556-.1268 1.7578.0491.4722.1531.9011.3459 1.4193-.0063.0225-.0135.0461-.0203.069-.014.0463-.0267.0908-.036.1292-.2076.8773-.4093 1.7426-.6105 2.6064-.1911.8201-.3822 1.6389-.5776 2.4659l-.044.1854c-.2.8426-.4063 1.7138-.4541 2.754l-.0215.4345c-.0423.808-.0854 1.6438.0215 2.417.0212.1508.0681.4891.3966.6073.0981.0748.1928.1061.2846.1061.2748 0 .5196-.283.7277-.523.6794-.7828 1.257-1.7711 1.7661-3.0209.2279-.559.3788-1.1604.5247-1.7422l.0879-.3467c.1066-.4143.211-.8342.3142-1.2496l.0068-.0276c.1919.1701.4135.3237.6701.4661.5434.3049 1.1565.4825 1.8215.5277.6237.0429 1.2799-.0381 2.0042-.2487.5501-.159 1.0769-.4005 1.5661-.7179 1.7551-1.1389 2.9517-3.1313 3.3691-5.6099.1251-.7406.1784-1.336.1784-1.9907 0-.7554-.0888-1.4416-.2643-2.0389Zm-.7674 3.8818c-.3763 2.2323-1.4355 4.0146-2.9826 5.0185-.4181.2715-.868.4776-1.3377.6134-.6262.1823-1.1856.2532-1.707.217-.5459-.0372-1.0236-.1746-1.4629-.4211-.4394-.2436-.7243-.5083-.9243-.8576l-.5311-.9292-.4786 1.9029c-.1027.413-.2064.8303-.3125 1.2425l-.0888.3518c-.145.5772-.2816 1.1224-.4862 1.6233-.4558 1.1198-.9649 2.0055-1.5539 2.7039-.046-.5945-.0114-1.2612.0225-1.9093l.0219-.4396c.0436-.9572.2406-1.7872.4309-2.5897l.0444-.1864c.1953-.8276.3864-1.6475.578-2.4683.2012-.8629.4025-1.7272.6097-2.6025.0059-.0247.0148-.0536.0236-.0838.0521-.1769.1062-.3597.033-.5455-.1856-.4822-.2837-.8668-.3272-1.2864-.0521-.4958-.0178-.9802.1031-1.4399.2157-.8216.6854-1.4127 1.2897-1.6218.1496-.0521.3065-.0744.457-.0744.2457 0 .4731.0596.6195.1461.2629.156.4317.4011.5153.7503.0804.3318.0575.7886-.0676 1.3574-.1315.5945-.2871 1.0971-.452 1.6293-.1066.343-.2144.6916-.3184 1.0733l-.0181.0667c-.1332.4867-.2842 1.0382-.1421 1.6427.1289.5474.4139.9742.8706 1.3047.4536.3287.9864.4757 1.6105.4557.9488-.0323 1.7965-.5234 2.5204-1.4589.7928-1.023 1.2892-2.3948 1.4761-4.0783.0469-.4291.1044-1.0758.0592-1.7361-.0753-1.1076-.4207-2.0535-1.0275-2.8117-.5712-.7139-1.3606-1.2497-2.2832-1.5492-.9573-.3113-2.224-.3907-3.3056-.2065-1.9483.3325-3.4612 1.415-4.3753 3.1311-.5015.9413-.745 1.9277-.745 3.0156 0 .8932.2134 1.6677.635 2.3022.058.0877.1273.1695.1991.252.0648.0745.1256.1448.1628.2101.0263.0716-.049.319-.0853.4379-.0203.0671-.0398.1316-.0555.1918-.0181.07-.0338.145-.0494.2207-.0169.0826-.0427.2101-.0702.2802-.1027-.0407-.2901-.1451-.3915-.2214-.778-.5871-1.0634-.9647-1.4541-1.9225-.293-.7198-.4385-2.1445-.293-2.8764.1623-.8201.5082-1.8641.7873-2.3768.6266-1.1489 1.5352-2.0791 2.7013-2.7645.9235-.5424 1.9298-.8869 3.0782-1.0534.4084-.06.8414-.0834 1.2862-.1039 1.1475-.0546 2.3505.1688 3.3855.6288.904.4023 1.6642.9463 2.3238 1.6636.6652.7222 1.1289 1.556 1.419 2.5494.1518.5165.2288 1.1187.2288 1.7893 0 .6025-.0495 1.1537-.1658 1.8429Z"/>
</svg>

<svg width="48" height="48" viewBox="0 0 48 48" fill="none" xmlns="http://www.w3.org/2000/svg">
<circle cx="24" cy="24" r="23.5" stroke="black"/>
<path d="M32.7357 18.4777C32.4068 17.3515 31.8783 16.4033 31.1197 15.5793C30.3781 14.7733 29.5248 14.1621 28.5105 13.7107C27.3554 13.1978 26.0163 12.9486 24.7368 13.0088C24.27 13.0305 23.8143 13.0553 23.3673 13.1209C22.1081 13.3034 20.9995 13.6837 19.978 14.2838C18.6745 15.0501 17.6567 16.0928 16.9532 17.383C16.5878 18.0544 16.228 19.2383 16.075 20.0112C15.894 20.9228 16.0534 22.5039 16.4166 23.3956C16.8703 24.507 17.2436 24.9995 18.1539 25.687C18.1594 25.6911 18.7222 26.1018 19.0972 26.0956C19.7801 26.0823 19.9159 25.4205 19.981 25.1024C19.9932 25.0424 20.0051 24.9829 20.0194 24.9271C20.0321 24.8779 20.0486 24.8252 20.0651 24.7703C20.1615 24.4543 20.293 24.0218 20.0748 23.6383C19.9928 23.4946 19.896 23.3827 19.8106 23.2844C19.7641 23.2308 19.7176 23.1792 19.6799 23.1222C19.356 22.6348 19.192 22.0249 19.192 21.3095C19.192 20.3709 19.4017 19.5208 19.833 18.7108C20.6156 17.2416 21.9145 16.3141 23.5897 16.0283C24.5432 15.8666 25.6539 15.9343 26.4877 16.2048C27.2492 16.4523 27.8974 16.89 28.3625 17.4712C28.8547 18.0863 29.1363 18.8665 29.1984 19.7906C29.239 20.3804 29.1862 20.9742 29.1426 21.3688C28.9743 22.8874 28.538 24.1098 27.8463 25.0028C27.2797 25.7355 26.6687 26.1029 25.9778 26.1265C25.533 26.144 25.2007 26.0519 24.9001 25.8338C24.6163 25.6288 24.4476 25.3762 24.3681 25.0396C24.2781 24.6553 24.3867 24.2568 24.5022 23.8349L24.5208 23.7675C24.6218 23.3962 24.7271 23.0571 24.8307 22.7233C24.9935 22.1973 25.1622 21.6534 25.3013 21.0227C25.4586 20.3105 25.4793 19.7355 25.3656 19.2652C25.2252 18.6817 24.9157 18.2446 24.4455 17.9657C23.9479 17.6715 23.243 17.615 22.6515 17.8215C21.7695 18.1266 21.0968 18.9381 20.8054 20.0481C20.6579 20.6119 20.6148 21.2037 20.6786 21.8059C20.7277 22.2781 20.8317 22.707 21.0245 23.2252C21.0182 23.2477 21.011 23.2713 21.0042 23.2942C20.9902 23.3405 20.9775 23.385 20.9682 23.4234C20.7606 24.3007 20.5589 25.166 20.3577 26.0298C20.1666 26.8499 19.9755 27.6687 19.7801 28.4957L19.7361 28.6811C19.5361 29.5237 19.3298 30.3949 19.282 31.4351L19.2605 31.8696C19.2182 32.6776 19.1751 33.5134 19.282 34.2866C19.3032 34.4374 19.3501 34.7757 19.6786 34.8939C19.7767 34.9687 19.8714 35 19.9632 35C20.238 35 20.4828 34.717 20.6909 34.477C21.3703 33.6942 21.9479 32.7059 22.457 31.4561C22.6849 30.8971 22.8358 30.2957 22.9817 29.7139L23.0696 29.3672C23.1762 28.9529 23.2806 28.533 23.3838 28.1176L23.3906 28.09C23.5825 28.2601 23.8041 28.4137 24.0607 28.5561C24.6041 28.861 25.2172 29.0386 25.8822 29.0838C26.5059 29.1267 27.1621 29.0457 27.8864 28.8351C28.4365 28.6761 28.9633 28.4346 29.4525 28.1172C31.2076 26.9783 32.4042 24.9859 32.8216 22.5073C32.9467 21.7667 33 21.1713 33 20.5166C33 19.7612 32.9112 19.075 32.7357 18.4777ZM31.9683 22.3595C31.592 24.5918 30.5328 26.3741 28.9857 27.378C28.5676 27.6495 28.1177 27.8556 27.648 27.9914C27.0218 28.1737 26.4624 28.2446 25.941 28.2084C25.3951 28.1712 24.9174 28.0338 24.4781 27.7873C24.0387 27.5437 23.7538 27.279 23.5538 26.9297L23.0227 26.0005L22.5441 27.9034C22.4414 28.3164 22.3377 28.7337 22.2316 29.1459L22.1428 29.4977C21.9978 30.0749 21.8612 30.6201 21.6566 31.121C21.2008 32.2408 20.6917 33.1265 20.1027 33.8249C20.0567 33.2304 20.0913 32.5637 20.1252 31.9156L20.1471 31.476C20.1907 30.5188 20.3877 29.6888 20.578 28.8863L20.6224 28.6999C20.8177 27.8723 21.0088 27.0524 21.2004 26.2316C21.4016 25.3687 21.6029 24.5044 21.8101 23.6291C21.816 23.6044 21.8249 23.5755 21.8337 23.5453C21.8858 23.3684 21.9399 23.1856 21.8667 22.9998C21.6811 22.5176 21.583 22.133 21.5395 21.7134C21.4874 21.2176 21.5217 20.7332 21.6426 20.2735C21.8583 19.4519 22.328 18.8608 22.9323 18.6517C23.0819 18.5996 23.2388 18.5773 23.3893 18.5773C23.635 18.5773 23.8624 18.6369 24.0088 18.7234C24.2717 18.8794 24.4405 19.1245 24.5241 19.4737C24.6045 19.8055 24.5816 20.2623 24.4565 20.8311C24.325 21.4256 24.1694 21.9282 24.0045 22.4604C23.8979 22.8034 23.7901 23.152 23.6861 23.5337L23.668 23.6004C23.5348 24.0871 23.3838 24.6386 23.5259 25.2431C23.6548 25.7905 23.9398 26.2173 24.3965 26.5478C24.8501 26.8765 25.3829 27.0235 26.007 27.0035C26.9558 26.9712 27.8035 26.4801 28.5274 25.5446C29.3202 24.5216 29.8166 23.1498 30.0035 21.4663C30.0504 21.0372 30.1079 20.3905 30.0627 19.7302C29.9874 18.6226 29.642 17.6767 29.0352 16.9185C28.464 16.2046 27.6746 15.6688 26.752 15.3693C25.7947 15.058 24.528 14.9786 23.4464 15.1628C21.4981 15.4953 19.9852 16.5778 19.0711 18.2939C18.5696 19.2352 18.3261 20.2216 18.3261 21.3095C18.3261 22.2027 18.5395 22.9772 18.9611 23.6117C19.0191 23.6994 19.0884 23.7812 19.1602 23.8637C19.225 23.9382 19.2858 24.0085 19.323 24.0738C19.3493 24.1454 19.274 24.3928 19.2377 24.5117C19.2174 24.5788 19.1979 24.6433 19.1822 24.7035C19.1641 24.7735 19.1484 24.8485 19.1328 24.9242C19.1159 25.0068 19.0901 25.1343 19.0626 25.2044C18.9599 25.1637 18.7725 25.0593 18.6711 24.983C17.8931 24.3959 17.6077 24.0183 17.217 23.0605C16.924 22.3407 16.7785 20.916 16.924 20.1841C17.0863 19.364 17.4322 18.32 17.7113 17.8073C18.3379 16.6584 19.2465 15.7282 20.4126 15.0428C21.3361 14.5004 22.3424 14.1559 23.4908 13.9894C23.8992 13.9294 24.3322 13.906 24.777 13.8855C25.9245 13.8309 27.1275 14.0543 28.1625 14.5143C29.0665 14.9166 29.8267 15.4606 30.4863 16.1779C31.1515 16.9001 31.6152 17.7339 31.9053 18.7273C32.0571 19.2438 32.1341 19.846 32.1341 20.5166C32.1341 21.1191 32.0846 21.6703 31.9683 22.3595Z" fill="black"/>
</svg>
